X:4123
T:McElroy's Fancy
T:Pat Hogan's Two
O:england
R:polka
M:2/4
L:1/8
K:Edor
B2 B>A|FA D2|B>c BA|B/c/d ed|B2 B>A|FA D>E|FD AF|E2 E2:|
|:Be e>f|ed BA|Be e>f|ed Bc|d>e dB|AF D>E|FD AF|E2 E2:|


